build/category/GlobeOutline.svg

<svg xmlns="http://www.w3.org/2000/svg" fill="none" viewBox="0 0 24 24" focusable="false"><path d="M0 0H24V24H0z"/><path fill="#74767B" fill-rule="evenodd" d="M21 12C21 16.9706 16.9706 21 12 21C7.02944 21 3 16.9706 3 12C3 7.02944 7.02944 3 12 3C16.9706 3 21 7.02944 21 12ZM10.3074 19.5134C9.8477 18.9362 9.36885 18.2487 8.9341 17.4793C8.78442 17.2145 8.63921 16.9385 8.50139 16.6527L5.86413 16.6527C6.94384 18.0744 8.50635 19.1094 10.3074 19.5134ZM5.06627 15.3527L7.9579 15.3527C7.65741 14.5035 7.4431 13.5943 7.37396 12.65L4.32705 12.65C4.40746 13.612 4.66474 14.5238 5.06627 15.3527ZM4.32705 11.35L7.37396 11.35C7.44286 10.409 7.65592 9.50291 7.95474 8.65626L5.06194 8.65626C4.66289 9.48275 4.40717 10.3914 4.32705 11.35ZM5.85734 7.35626L8.49709 7.35626C8.63619 7.06728 8.78286 6.78833 8.9341 6.52068C9.36886 5.75127 9.84772 5.06382 10.3074 4.48663C8.50259 4.89146 6.93729 5.92994 5.85734 7.35626ZM18.1359 16.6527C17.0562 18.0744 15.4936 19.1094 13.6926 19.5134C14.1523 18.9362 14.6311 18.2487 15.0659 17.4793C15.2156 17.2144 15.3608 16.9385 15.4986 16.6527L18.1359 16.6527ZM18.9337 15.3527L16.0421 15.3527C16.3426 14.5035 16.5569 13.5943 16.626 12.65L19.673 12.65C19.5925 13.612 19.3353 14.5238 18.9337 15.3527ZM19.673 11.35L16.626 11.35C16.5571 10.409 16.3441 9.50292 16.0453 8.65626L18.9381 8.65626C19.3371 9.48275 19.5928 10.3914 19.673 11.35ZM18.1427 7.35626L15.5029 7.35626C15.3638 7.06727 15.2171 6.78831 15.0659 6.52065C14.6311 5.75126 14.1523 5.06382 13.6926 4.48663C15.4974 4.89147 17.0627 5.92995 18.1427 7.35626ZM15.322 12.65C15.2419 13.5872 14.9956 14.4993 14.6527 15.3527L9.34726 15.3527C9.00439 14.4993 8.75813 13.5872 8.67805 12.65L15.322 12.65ZM14.0379 16.6527L9.96212 16.6527C9.99635 16.7156 10.031 16.7779 10.0659 16.8398C10.6936 17.9507 11.4186 18.8687 12 19.4865C12.5814 18.8687 13.3064 17.9506 13.9341 16.8398C13.969 16.7779 14.0036 16.7156 14.0379 16.6527ZM15.3219 11.35L8.67805 11.35C8.75786 10.4161 9.00268 9.5071 9.34368 8.65626L14.6563 8.65626C14.9973 9.5071 15.2421 10.4161 15.3219 11.35ZM14.0427 7.35626L9.95727 7.35626C9.99307 7.29037 10.0293 7.22501 10.0659 7.16022C10.6936 6.04936 11.4186 5.13133 12 4.51354C12.5814 5.13133 13.3064 6.04935 13.9341 7.16019C13.9707 7.22499 14.0069 7.29036 14.0427 7.35626Z"/></svg>

<svg xmlns="http://www.w3.org/2000/svg" fill="none" viewBox="0 0 24 24" focusable="false"><path fill="#74767B" fill-rule="evenodd" d="M21 12a9 9 0 0 1-9 9c-4.98 0-9-4.03-9-9 0-4.98 4.02-9 9-9 4.97 0 9 4.02 9 9m-10.7 7.51c-.46-.58-.94-1.27-1.37-2.04-.15-.26-.3-.54-.43-.82H5.86a7.74 7.74 0 0 0 4.44 2.86m-5.24-4.16h2.89c-.3-.85-.51-1.76-.58-2.7H4.32c.08.96.34 1.87.74 2.7m-.74-4h3.05c.07-.95.28-1.85.58-2.7H5.06c-.4.83-.66 1.74-.74 2.7m1.53-4h2.64c.14-.29.29-.57.44-.83.43-.77.91-1.46 1.37-2.04-1.8.41-3.37 1.44-4.45 2.87m12.28 9.3a7.74 7.74 0 0 1-4.44 2.86c.46-.58.94-1.27 1.37-2.04.15-.26.3-.54.43-.82zm.8-1.3h-2.89c.3-.85.51-1.76.58-2.7h3.05a7.7 7.7 0 0 1-.74 2.7m.74-4h-3.05c-.07-.95-.28-1.85-.58-2.7h2.89c.4.83.66 1.74.74 2.7m-1.53-4H15.5c-.14-.29-.29-.57-.44-.83-.43-.77-.91-1.46-1.37-2.04 1.8.41 3.37 1.44 4.45 2.87m-2.82 5.3c-.08.93-.33 1.84-.67 2.7H9.34c-.34-.86-.59-1.77-.67-2.7zm-1.29 4H9.96c.03.06.07.12.1.18.63 1.12 1.35 2.03 1.94 2.65.58-.62 1.3-1.53 1.93-2.65.03-.06.07-.12.1-.18m1.29-5.3H8.67c.08-.94.33-1.85.67-2.7h5.31c.34.85.59 1.76.67 2.7m-1.28-4H9.95c.04-.06.07-.13.11-.19.63-1.12 1.35-2.03 1.94-2.65.58.62 1.3 1.53 1.93 2.65.04.06.07.13.11.19"/></svg>
